X:167
T:La Russe
R:polka 32
M:4/4
L:1/8
K:G
BA|:G2BB B2dd|d2g2 g2fg|a2g2 f2e2|e2d2 c2A2|
|G2BB B2dd|d2g2g2 fg|e2c2 A2F2|1 G2 B2G2 BA:|2 G2B2G2A2|
K:D
|:A2d2 d2cB|A2f2 f3f|g2f2 g2e2|e2d2 d2 cB|
|A2d2 d2cB|A2f2 f2ef|g2f2 g2e2|1 d6 B2:|2 d2c2 B2A2|

